www_src/static/img/brush.svg

<?xml version="1.0" encoding="UTF-8" standalone="no"?>
<svg width="27px" height="25px" viewBox="0 0 27 25" version="1.1" xmlns="http://www.w3.org/2000/svg" xmlns:xlink="http://www.w3.org/1999/xlink" xmlns:sketch="http://www.bohemiancoding.com/sketch/ns">
    <!-- Generator: Sketch 3.3.1 (12002) - http://www.bohemiancoding.com/sketch -->
    <title></title>
    <desc>Created with Sketch.</desc>
    <defs></defs>
    <g id="Page-1" stroke="none" stroke-width="1" fill="none" fill-rule="evenodd" sketch:type="MSPage">
        <path d="M6.9140625,14.3320313 C8.51563301,14.3320313 9.88280684,14.8984318 11.015625,16.03125 C12.1484432,17.1640682 12.5390643,18.5898352 12.1875,20.3085938 C11.6406223,22.8086063 9.88282734,24.3124975 6.9140625,24.8203125 C5.78124434,25.015626 4.46289814,24.9472673 2.95898438,24.6152344 C1.45507061,24.2832015 0.468752344,23.6679732 0,22.7695312 C1.32813164,22.2617162 1.9921875,21.3046945 1.9921875,19.8984375 C1.9921875,18.3749924 2.44140176,17.0664117 3.33984375,15.9726563 C4.23828574,14.8789008 5.42968008,14.3320313 6.9140625,14.3320313 L6.9140625,14.3320313 Z M25.546875,1.265625 C26.445317,2.16406699 26.5429723,3.04296445 25.8398438,3.90234375 L16.8164062,14.15625 C16.9335943,14.7031277 16.8750012,15.152342 16.640625,15.5039062 L13.7109375,18.9023438 C13.5937494,19.0195318 13.4765631,19.0195318 13.359375,18.9023438 C13.3203123,18.8632811 13.3007812,18.8046879 13.3007812,18.7265625 L13.3007812,18.6679688 C13.3398439,17.1835863 12.8515676,15.9531299 11.8359375,14.9765625 C10.8203074,13.9999951 9.57031992,13.4726566 8.0859375,13.3945312 L7.96875,13.3945312 C7.89062461,13.3945312 7.8515625,13.3750002 7.8515625,13.3359375 C7.73437441,13.2187494 7.73437441,13.1015631 7.8515625,12.984375 L11.3085938,10.1132812 C11.6210953,9.91796777 12.0703096,9.87890566 12.65625,9.99609375 L22.9101562,0.97265625 C23.7695355,0.269527734 24.648433,0.367183008 25.546875,1.265625 L25.546875,1.265625 Z" id="" fill="#669EFF" sketch:type="MSShapeGroup"></path>
    </g>
</svg>

<svg width="27" height="25" viewBox="0 0 27 25" xmlns="http://www.w3.org/2000/svg"><title></title><path d="M6.914 14.332c1.602 0 2.97.566 4.102 1.7 1.132 1.132 1.523 2.558 1.171 4.277-.546 2.5-2.304 4.002-5.273 4.51-1.133.196-2.45.127-3.955-.205C1.454 24.283.47 23.668 0 22.77c1.328-.508 1.992-1.465 1.992-2.872 0-1.523.45-2.832 1.348-3.925.898-1.094 2.09-1.64 3.574-1.64zM25.547 1.266c.898.898.996 1.777.293 2.636l-9.024 10.254c.118.547.06.996-.175 1.348l-2.93 3.398c-.116.118-.233.118-.35 0-.04-.04-.06-.097-.06-.175v-.06c.04-1.483-.448-2.714-1.464-3.69-1.016-.977-2.266-1.504-3.75-1.582H7.97c-.08 0-.118-.02-.118-.06-.118-.116-.118-.233 0-.35l3.457-2.872c.31-.195.76-.234 1.346-.117L22.91.973c.86-.703 1.738-.606 2.637.293z" fill="#669EFF" fill-rule="evenodd"/></svg>
